X: 1
T: Trandafirul
O: Romania
Z: 2014 John Chambers <jc:trillian.mit.edu>
S: handwritten copy from Yaron Shragai
N: "Dansuri populare"
Q: "Allegretto"
M: 2/4
L: 1/8
K: F
"B"|:\
"F"A3 B | "A7"AG FE | "Dm"D2 D2 | D4 |\
"G7"G3 A | GF ED | "C"C2 C2 | C4 :|
"A"|:\
"F"AG F2 | AGF2 | "Gm"GA BA | G4 |\
"C"GG c2 | GG c2 | "C7"cB AG | F4 :|
